X:1
T:170 - Oração de Consagração
T:Letra: Philip Paul Bliss (1838-1876)
T:Trad.: Antônio Ferreira de Campos (1866-1950)
T:Música: Philip Paul Bliss (1838-1876)
M:12/8
L:1/8
K:Eb
V:1
"Eb"G3 GcB =A3 B3 | E3 EDE "Bb7"(G3F3) | "Eb"G3 GcB =A3 B3 | "Cm"B3 "F7"=AGA "Bb"B3 z3 | "Ab"A3 AAA "Eb"A3 G3 | "Ab"c3 ccc "Eb"B3 z3 | e3 eee "Ab"e3 c3 | "Eb/Bb"B3 yy"Bb7"BAF "Eb"E3 z3 |]
w: 1.~Oh, mais de-tes-tá-vel, sim, se-ja-meo mal!_ Mais cal-maem pe-sa-res, mais al-toi-de-al, Mais fé no meu Mes-tre, mais con-sa-gra-ção, Mais go-zoem ser-vi-Lo, mais gra-tao-ra-ção.
w: 2.~Mais jus-to me fa-ze, mais sá-bio, Se-nhor,_ Mais fir-me na cau-sa, com mui-to fer-vor, Mais re-to na vi-da, mais tris-teao pe-car, Um fi-lho sub-mis-so, mais pron-toem a-mar.
w: 3.~Mais pu-ro me fa-ze, mais san-toem Je-sus,_ Mais do teu do-mí-nio, mais paz nes-sa cruz, Mais ri-caes-pe-ran-ça, mais o-bras a-qui, Do céu mais an-sio-so, mais vi-da por Ti.          				                    
W: 
W: 
W: 1. Oh, mais detestável, sim, seja-me o mal!
W: Mais calma em pesares, mais alto ideal,
W: Mais fé no meu Mestre, mais consagração,
W: Mais gozo em servi-Lo, mais grata oração.
W: 
W: 2. Mais justo me faze, mais sábio, Senhor,
W: Mais firme na causa, com muito fervor,
W: Mais reto na vida, mais triste ao pecar,
W: Um filho submisso, mais pronto em amar.
W: 
W:
W:
W: 3. Mais puro me faze, mais santo em Jesus,
W: Mais do teu domínio, mais paz nessa cruz,
W: Mais rica esperança, mais obras aqui,
W: Do céu mais ansioso, mais vida por Ti.
W:         





%wordsfont Times-Roman 13.0
%vocalfont Times-Roman 13.0
